archdroid-icon-theme/Archdroid-BlueGrey/categories/scalable/applications-publishing.svg

<?xml version="1.0" encoding="UTF-8" standalone="no"?>
<svg
   xmlns:dc="http://purl.org/dc/elements/1.1/"
   xmlns:cc="http://creativecommons.org/ns#"
   xmlns:rdf="http://www.w3.org/1999/02/22-rdf-syntax-ns#"
   xmlns:svg="http://www.w3.org/2000/svg"
   xmlns="http://www.w3.org/2000/svg"
   xmlns:sodipodi="http://sodipodi.sourceforge.net/DTD/sodipodi-0.dtd"
   xmlns:inkscape="http://www.inkscape.org/namespaces/inkscape"
   fill="#607D8B"
   width="48"
   height="48"
   viewBox="0 0 48 48"
   id="svg2"
   version="1.1"
   inkscape:version="0.91 r13725"
   sodipodi:docname="text-x-generic-template.svg">
  <metadata
     id="metadata10">
    <rdf:RDF>
      <cc:Work
         rdf:about="">
        <dc:format>image/svg+xml</dc:format>
        <dc:type
           rdf:resource="http://purl.org/dc/dcmitype/StillImage" />
      </cc:Work>
    </rdf:RDF>
  </metadata>
  <defs
     id="defs8" />
  <sodipodi:namedview
     pagecolor="#ffffff"
     bordercolor="#666666"
     borderopacity="1"
     objecttolerance="10"
     gridtolerance="10"
     guidetolerance="10"
     inkscape:pageopacity="0"
     inkscape:pageshadow="2"
     inkscape:window-width="1366"
     inkscape:window-height="713"
     id="namedview6"
     showgrid="false"
     inkscape:snap-bbox="true"
     inkscape:snap-bbox-midpoints="true"
     inkscape:zoom="4.9166667"
     inkscape:cx="24"
     inkscape:cy="24"
     inkscape:window-x="0"
     inkscape:window-y="30"
     inkscape:window-maximized="1"
     inkscape:current-layer="svg2" />
  <path
     d="M 12 4 C 9.79 4 8.0195312 5.79 8.0195312 8 L 8 40 C 8 42.21 9.7704688 44 11.980469 44 L 36 44 C 38.21 44 40 42.21 40 40 L 40 16 L 28 4 L 12 4 z M 26 7 L 37 18 L 26 18 L 26 7 z M 23 20 L 25 20 L 31.333984 34.666016 L 28.533203 34.666016 L 27.333984 31.732422 L 20.666016 31.732422 L 19.466797 34.666016 L 16.666016 34.666016 L 23 20 z M 24 22.640625 L 21.505859 29.333984 L 26.494141 29.333984 L 24 22.640625 z M 14.666016 37.333984 L 33.333984 37.333984 L 33.333984 40 L 14.666016 40 L 14.666016 37.333984 z "
     id="path4157" />
</svg>

<svg xmlns="http://www.w3.org/2000/svg" fill="#607D8B" viewBox="0 0 48 48"><path d="m12 4c-2.21 0-3.98 1.79-3.98 4l-.02 32c0 2.21 1.77 4 3.98 4h24.02c2.21 0 4-1.79 4-4v-24l-12-12h-16m14 3l11 11h-11v-11m-3 13h2l6.334 14.666h-2.801l-1.199-2.934h-6.668l-1.199 2.934h-2.801l6.334-14.666m1 2.641l-2.494 6.693h4.988l-2.494-6.693m-9.334 14.693h18.668v2.666h-18.668v-2.666"/></svg>
